X: 1
T: Hommage \`a Roche Proulx
C: Marcel Messervier
R: reel
Z: 2015 John Chambers <jc:trillian.mit.edu>
S: printed copy of unknown origin, from Paul Lizotte
N: Roche Proulx is host of the TV show Gentile Alouette
N: vi John Guay & Vonnie Estes
M: C|
L: 1/8
K: G
|:\
"G"g3e dBGA | BGFG E2D2 | g3f e2de | "D"fgab afdf |
"G"g3e dBGA | BGFG EDEF | GFGA B2AG |1 "D7"FDEF "G"G4 :|\
[2 [M:3/2] "D7"FDEF "G"G3D G2A2  ||
|: [M:C|] \
"G"B3B BABc | B2A2 GFGB | "Gdim7"e2dd- dBde |\
"G/B"d2B2 "Gdim7"A2G2 | "Am"F3F FDFA |
"D7"d2~c2 B2A2 |1 "G"GBDG B2e2 |\
"D"d3B G2A2 :|2 "G"GBDG "D7"B2A2 | "G"G4 Gde"_D.C."f |]
